!!!COM: Corelli, Arcangelo
!!!OPR: Sonata da camera
!!!OPS: 4
!!!ONM: 5
!!!OMV: 1
!!!OTL: Preludio
!!!OMD: Adagio
**kern	**fb	**kern	**kern
*part4	*part4	*part2	*part1
*staff4	*	*staff2	*staff1
*I"Violone & Cembalo	*	*I"Violino II	*I"Violino I
*clefF4	*	*clefG2	*clefG2
*k[]	*	*k[]	*k[]
*M4/4	*	*M4/4	*M4/4
*met(c)	*	*met(c)	*met(c)
=1	=1	=1	=1
4A	.	4cc	4ee
8r	.	8r	8r
8A	.	8cc	8ee
4D	.	4a	4ff
[4d	.	8r	8r
.	.	8a	8ff
=2	=2	=2	=2
4d]	#4| 2	8g#XL	4.ee
.	.	8eJ	.
4c	6	2a	.
.	.	.	8a
4B	7	.	4.dd
4E	#	4g#	.
.	.	.	(16eeLL
.	.	.	16ddJJ)
=3	=3	=3	=3
4.A	5	4.a	8ccL
.	.	.	8aJ
.	6	.	4.ff
8A	.	8cc	.
4.G	7	4.b	.
.	.	.	(16eeLL
.	.	.	16ddJJ)
.	6	.	[4ee
16FLL	.	16aLL	.
16EJJ	.	16g#XJJ	.
=4	=4	=4	=4
4.F	7	4.a	8eeL]
.	.	.	(16aaL
.	.	.	16ccJJ)
.	6	.	8.ddL
8FF	.	8a	.
.	.	.	16eeJk
2EE	#	2g#X	2ee
=5	=5	=5	=5
1r;	.	1r;	1r;
=6	=6	=6	=6
4c	.	4ee	4gg
8r	.	8r	8r
8c	.	8ee	8gg
4F	.	4cc	4aa
[4f	.	8r	8r
.	.	8cc	8aa
=7	=7	=7	=7
4f]	4 2	8bL	4.gg
.	.	8gJ	.
4e	6	2cc	.
.	.	.	8cc
4d	7	.	4ff
4G	7	4b	[4dd
=8	=8	=8	=8
8CL	9	4.ee	8ddL]
8D	.	.	8g
8E	6	.	8cc
8CJ	.	8gg	8eeJ
4F	6	4dd	4a
4G	5	8ddL	4b
.	6	8eeJ	.
=9	=9	=9	=9
4A	6	4ff	2.cc
8GL	6 4	8eeL	.
8FJ	6 5	8ddJ	.
8GL	6 4	4ee	.
8F	.	.	.
8G	5 4	4dd	8.ccL
8GGJ	3	.	.
.	.	.	16bJk
=10	=10	=10	=10
8CL	.	4cc	8ccL
8cJ	.	.	8ee
4B	6 4	4.r	8ee
.	.	.	8eeJ
4A	#6\ 5	.	[2ee
.	.	8ff#XL	.
4A#X	6 5	8ff#	.
.	.	8ff#J	.
=11	=11	=11	=11
8BL	#5\ 4	[2ff#X	8eeL]
8G	#7\ 3	.	8b
8Ani	6 #	.	8cc#X
8BJ	#5\ #	.	8dd#XJ
8cL	#4|	8ff#L]	[2ee
8G	6	8b	.
8A	#	8cc#X	.
8BJ	#	8dd#XJ	.
=12	=12	=12	=12
8cL	.	4.ee	8eeL]
8G	6	.	8bb
8A	.	.	8cccniJ
8AAJ	.	8cccni	4aa
8BBL	7 #	8dd#X	.
8E	.	4ee	8gg
8B	5 4	.	4ff#X
8BBJ	#	8dd#	.
=13	=13	=13	=13
8EEL	.	[1ee	[2ee
8A	.	.	.
8G#X	6	.	.
8EJ	.	.	.
8AAL	.	.	8eeL]
8A	.	.	8aJ
8G#	6	.	4b
8EJ	.	.	.
=14	=14	=14	=14
8AAL	.	8eeL]	4cc
8A	.	8aJ	.
8Gni	.	4b	4dd
8GGJ	.	.	.
8CL	.	8cc	8eeL
8c	.	4ee	8ggJ
8A	6 5	.	4ff
8BJ	5	[8dd	.
=15	=15	=15	=15
8cL	9	8dd]	4ee
8E	6	4cc	.
8F#X	6 5	.	4dd
8G#XJ	5	4b	.
8AL	9	.	8ccL
8C	6	8a	8eeJ
8D	.	(16ddLL	(16ffLL
.	.	16cc)	16ee)
8AAJ	.	(16b	(16dd
.	.	16aJJ)	16ccJJ)
=16	=16	=16	=16
8EL	#	4g#X	8bL
8C	6	.	8ee
8D	6 5	4.r	8ff
8EJ	#	.	8g#XJ
8FniL	.	.	[2a
8C	6	8eeL	.
8D	6 5	8ff	.
8EJ	#	8g#J	.
=17	=17	=17	=17
8FL	.	4.a	8aL]
8c	6	.	8ee
8d	9	.	8ffJ
8DJ	8	8ff	4dd
8EL	7 #	8g#X	.
8AA	.	4a	8cc
8E	5 4	.	4b
8EEJ	#3	8g#	.
=18	=18	=18	=18
8AAL	.	4a	8aL
8C#X	6	.	8ee
8D	.	8r	8ff
8C#J	.	8ee	8eeJ
8DL	.	(8ffL	8r
8AAJ	#	8eeJ)	(16aaLL
.	.	.	16eeJJ)
8r	.	8r	8ffL
8C#	6	(16aaLL	8eeJ
.	.	16eeJJ)	.
=19	=19	=19	=19
8DL	-	(8ffL	8r
8C#X	6	8eeJ)	8eeL
8D	.	8r	8ff
8EJ	#	4ee	8g#XJ
4F	7	.	2a
.	.	(16aaLL	.
.	.	16ccJJ)	.
4FF	6	8.ddL	.
.	.	16eeJk	.
=20	=20	=20	=20
1EE;	#	1ee;	1g#X;
==	==	==	==
*-	*-	*-	*-
!!!system-decoration: [{s1,s2},s3,s4]
!!!YEM: CC BY-NC-SA 4.0; CCARH; DCML
!!!RDF**kern: i = editorial accidental